X: 1656
T: O'Connor's Fancy
%S:s:3 b:13(5+4+4)
B: O'Neill's 1850 #1656
O: J.O'Neill
M: 4/4
L: 1/8
K: D
A>G \
| F>AD>D D>FD>D | C>DE>F G2F>E | F>AB>c d>AB>G |1,3 F2E2 E2 :|2,4 F2D2 D2 :|
|: c2 \
| d>AF>A d>fe>d | e>dc>d e>fg>e | f>de>c d>fe>d | c2A2 A2 d>c |
| B>AG>A d>fe>d | e>dc>A B>AG>F | G>AB>c d>AB>G | F2D2 D2 :|
